T: Green Gates, The
M: 4/4
L: 1/8
K: Gmaj
(3GAB dg (3efe d2|GBd2 (3efe d2|eA~A2 eA~A2|Bdef (3gfe dB|(3GAB dg (3efe d2|(3GAB dg (3efe d2|cBcd edge|dBAB G4:|!|:dg~g2 bg~g2|dg~g2 edBd|eA~A2 eAfA|Bdef gedB|dg~g2 bg~g2|d2gd edBd|cBcd edge|dBAB G4:|!
